resources/assets/icons/hand-tap.svg

<svg viewBox="0 0 17 20" xmlns="http://www.w3.org/2000/svg">
    <path
        d="M12.8825 8.71429C12.8825 8.00421 13.4549 7.42857 14.1611 7.42857C14.5002 7.42857 14.8254 7.56403 15.0652 7.80515C15.305 8.04627 15.4397 8.37329 15.4397 8.71429V14.6106C15.4396 15.7747 14.9796 16.8911 14.1611 17.7143C13.3426 18.5377 12.2322 19.0002 11.0745 19H8.58714C6.87747 19.0003 5.28074 18.1415 4.33188 16.7114L1.22057 12.0186C0.926477 11.5757 0.926477 10.9983 1.22057 10.5554C1.42453 10.2478 1.74753 10.0403 2.11088 9.98363C2.47423 9.92692 2.84457 10.0262 3.13168 10.2571L5.21072 11.9286V2.28571C5.21072 1.57563 5.78318 1 6.48934 1C7.19551 1 7.76796 1.57563 7.76796 2.28571V8.07143M12.8825 8.71429V8.07143C12.8825 7.36135 12.31 6.78571 11.6038 6.78571C10.8977 6.78571 10.3252 7.36135 10.3252 8.07143M12.8825 8.71429V10.2571M10.3252 8.07143C10.3252 7.36135 9.75275 6.78571 9.04659 6.78571C8.34042 6.78571 7.76796 7.36135 7.76796 8.07143M10.3252 8.07143V10.2571M7.76796 8.07143V10.2571"
        stroke="currentColor" fill="none" stroke-width="2" stroke-linecap="round" stroke-linejoin="round" />
</svg>

<svg viewBox="0 0 17 20" xmlns="http://www.w3.org/2000/svg"><path d="M12.883 8.714a1.275 1.275 0 0 1 2.183-.91c.239.242.374.57.374.91v5.897c0 1.164-.46 2.28-1.279 3.103A4.351 4.351 0 0 1 11.075 19H8.587a5.107 5.107 0 0 1-4.255-2.289L1.22 12.02a1.324 1.324 0 0 1 0-1.464 1.311 1.311 0 0 1 1.91-.298l2.08 1.672V2.286C5.21 1.576 5.783 1 6.489 1c.707 0 1.279.576 1.279 1.286V8.07m5.115.643v-.643c0-.71-.573-1.285-1.28-1.285-.705 0-1.278.575-1.278 1.285m2.558.643v1.543m-2.558-2.186c0-.71-.572-1.285-1.278-1.285-.707 0-1.279.575-1.279 1.285m2.557 0v2.186M7.768 8.071v2.186" stroke="currentColor" fill="none" stroke-width="2" stroke-linecap="round" stroke-linejoin="round"/></svg>
